X: 439
T: Duoyu jitian bujian meimei xiaoyengyeng
L: 1/8
M: 2/4
K: G
A ^G/ A/ E E [I:setbarnb 1]| 
A ^G/ A/ E E | 
B> B B d | 
e4 | 
B> b B B | 
^G A =G A | 
e2G F | 
E4 |]

@@@ Tune index: 9313
